svg/metabase-light.svg

<svg xmlns="http://www.w3.org/2000/svg" xml:space="preserve" viewBox="0 0 512 512"><path d="M76.9 87.4c17.7 0 32 14.6 32 32.5s-14.3 32.5-32 32.5-32-14.6-32-32.5 14.3-32.5 32-32.5m0 91c17.7 0 32 14.6 32 32.5s-14.3 32.5-32 32.5-32-14.6-32-32.5 14.3-32.5 32-32.5m89.6.8c17.7 0 32 14.6 32 32.5s-14.3 32.5-32 32.5-32-14.6-32-32.5 14.3-32.5 32-32.5m268.6-91.8c17.7 0 32 14.6 32 32.5s-14.3 32.5-32 32.5-32-14.6-32-32.5 14.3-32.5 32-32.5m-89.6 91.8c17.7 0 32 14.6 32 32.5s-14.3 32.5-32 32.5-32-14.6-32-32.5 14.3-32.5 32-32.5m89.6 0c17.7 0 32 14.6 32 32.5s-14.3 32.5-32 32.5-32-14.6-32-32.5 14.3-32.5 32-32.5M76.9 269.3c17.7 0 32 14.6 32 32.5s-14.3 32.5-32 32.5-32-14.6-32-32.5 14.3-32.5 32-32.5m179.1.9c17.7 0 32 14.6 32 32.5s-14.3 32.5-32 32.5-32-14.6-32-32.5 14.3-32.5 32-32.5m179.1 0c17.7 0 32 14.6 32 32.5s-14.3 32.5-32 32.5-32-14.6-32-32.5 14.3-32.5 32-32.5m-358.2 90c17.7 0 32 14.6 32 32.5s-14.3 32.5-32 32.5-32-14.6-32-32.5 14.3-32.5 32-32.5m358.2 1c17.7 0 32 14.6 32 32.5s-14.3 32.5-32 32.5-32-14.6-32-32.5 14.3-32.5 32-32.5m-268.6-26.9c-17.2 0-31.2-14.2-31.2-31.6s14-31.6 31.2-31.6 31.2 14.2 31.2 31.6c-.1 17.4-14 31.6-31.2 31.6m0-55.9c-13.2 0-23.9 10.9-23.9 24.3s10.7 24.3 23.9 24.3 23.9-10.9 23.9-24.3c-.1-13.4-10.8-24.3-23.9-24.3m0-126.9c-17.2 0-31.2-14.2-31.2-31.6s14-31.6 31.2-31.6 31.2 14.2 31.2 31.6-14 31.6-31.2 31.6m0-55.9c-13.2 0-23.9 10.9-23.9 24.3s10.7 24.3 23.9 24.3 23.9-10.9 23.9-24.3c-.1-13.4-10.8-24.3-23.9-24.3m89.5 55.9c-17.2 0-31.2-14.2-31.2-31.6s14-31.6 31.2-31.6 31.2 14.2 31.2 31.6-14 31.6-31.2 31.6m0-55.9c-13.2 0-23.9 10.9-23.9 24.3s10.7 24.3 23.9 24.3 23.9-10.9 23.9-24.3-10.7-24.3-23.9-24.3m0-32.4c-17.2 0-31.2-14.2-31.2-31.6S238.8 0 256 0s31.2 14.2 31.2 31.6-14 31.6-31.2 31.6m0-55.9c-13.2 0-23.9 10.9-23.9 24.3s10.7 24.3 23.9 24.3 23.9-10.9 23.9-24.3S269.2 7.3 256 7.3m0 236c-17.2 0-31.2-14.2-31.2-31.6s14-31.6 31.2-31.6 31.2 14.2 31.2 31.6-14 31.6-31.2 31.6m0-55.9c-13.2 0-23.9 10.9-23.9 24.3S242.8 236 256 236s23.9-10.9 23.9-24.3-10.7-24.3-23.9-24.3m89.5-35.9c-17.2 0-31.2-14.2-31.2-31.6s14-31.6 31.2-31.6 31.2 14.2 31.2 31.6-14 31.6-31.2 31.6m0-55.9c-13.2 0-23.9 10.9-23.9 24.3s10.7 24.3 23.9 24.3 23.9-10.9 23.9-24.3-10.7-24.3-23.9-24.3m0 238.7c-17.2 0-31.2-14.2-31.2-31.6s14-31.6 31.2-31.6 31.2 14.2 31.2 31.6-14 31.6-31.2 31.6m0-55.9c-13.2 0-23.9 10.9-23.9 24.3s10.7 24.3 23.9 24.3 23.9-10.9 23.9-24.3-10.7-24.3-23.9-24.3m-179 146.9c-17.2 0-31.2-14.2-31.2-31.6s14-31.6 31.2-31.6 31.2 14.2 31.2 31.6-14 31.6-31.2 31.6m0-55.9c-13.2 0-23.9 10.9-23.9 24.3s10.7 24.3 23.9 24.3 23.9-10.9 23.9-24.3c-.1-13.4-10.8-24.3-23.9-24.3m89.5 55.9c-17.2 0-31.2-14.2-31.2-31.6s14-31.6 31.2-31.6 31.2 14.2 31.2 31.6-14 31.6-31.2 31.6m0-55.9c-13.2 0-23.9 10.9-23.9 24.3S242.8 418 256 418s23.9-10.9 23.9-24.3-10.7-24.3-23.9-24.3m0 142.6c-17.2 0-31.2-14.2-31.2-31.6s14-31.6 31.2-31.6 31.2 14.2 31.2 31.6-14 31.6-31.2 31.6m0-55.9c-13.2 0-23.9 10.9-23.9 24.3s10.7 24.3 23.9 24.3 23.9-10.9 23.9-24.3-10.7-24.3-23.9-24.3m89.5-30.8c-17.2 0-31.2-14.2-31.2-31.6s14-31.6 31.2-31.6 31.2 14.2 31.2 31.6-14 31.6-31.2 31.6m0-55.9c-13.2 0-23.9 10.9-23.9 24.3s10.7 24.3 23.9 24.3 23.9-10.9 23.9-24.3-10.7-24.3-23.9-24.3" style="fill:#fff"/></svg>

<?xml version="1.0" encoding="utf-8"?>
<!-- Generator: Adobe Illustrator 28.2.0, SVG Export Plug-In . SVG Version: 6.00 Build 0)  -->
<svg version="1.1" id="Layer_1" xmlns="http://www.w3.org/2000/svg" xmlns:xlink="http://www.w3.org/1999/xlink" x="0px" y="0px"
	 viewBox="0 0 512 512" style="enable-background:new 0 0 512 512;" xml:space="preserve">
<style type="text/css">
	.st0{fill:#FFFFFF;}
</style>
<path class="st0" d="M76.9,87.4c17.7,0,32,14.6,32,32.5s-14.3,32.5-32,32.5s-32-14.6-32-32.5S59.2,87.4,76.9,87.4z M76.9,178.4
	c17.7,0,32,14.6,32,32.5s-14.3,32.5-32,32.5s-32-14.6-32-32.5S59.2,178.4,76.9,178.4z M166.5,179.2c17.7,0,32,14.6,32,32.5
	s-14.3,32.5-32,32.5s-32-14.6-32-32.5S148.8,179.2,166.5,179.2z M435.1,87.4c17.7,0,32,14.6,32,32.5s-14.3,32.5-32,32.5
	s-32-14.6-32-32.5S417.4,87.4,435.1,87.4z M345.5,179.2c17.7,0,32,14.6,32,32.5s-14.3,32.5-32,32.5s-32-14.6-32-32.5
	S327.8,179.2,345.5,179.2z M435.1,179.2c17.7,0,32,14.6,32,32.5s-14.3,32.5-32,32.5s-32-14.6-32-32.5S417.4,179.2,435.1,179.2z
	 M76.9,269.3c17.7,0,32,14.6,32,32.5s-14.3,32.5-32,32.5s-32-14.6-32-32.5S59.2,269.3,76.9,269.3z M256,270.2
	c17.7,0,32,14.6,32,32.5s-14.3,32.5-32,32.5s-32-14.6-32-32.5S238.3,270.2,256,270.2z M435.1,270.2c17.7,0,32,14.6,32,32.5
	s-14.3,32.5-32,32.5s-32-14.6-32-32.5S417.4,270.2,435.1,270.2z M76.9,360.2c17.7,0,32,14.6,32,32.5s-14.3,32.5-32,32.5
	s-32-14.6-32-32.5S59.2,360.2,76.9,360.2z M435.1,361.2c17.7,0,32,14.6,32,32.5s-14.3,32.5-32,32.5s-32-14.6-32-32.5
	S417.4,361.2,435.1,361.2z M166.5,334.3c-17.2,0-31.2-14.2-31.2-31.6s14-31.6,31.2-31.6s31.2,14.2,31.2,31.6
	C197.6,320.1,183.7,334.3,166.5,334.3z M166.5,278.4c-13.2,0-23.9,10.9-23.9,24.3s10.7,24.3,23.9,24.3s23.9-10.9,23.9-24.3
	C190.3,289.3,179.6,278.4,166.5,278.4z M166.5,151.5c-17.2,0-31.2-14.2-31.2-31.6s14-31.6,31.2-31.6s31.2,14.2,31.2,31.6
	S183.7,151.5,166.5,151.5z M166.5,95.6c-13.2,0-23.9,10.9-23.9,24.3s10.7,24.3,23.9,24.3s23.9-10.9,23.9-24.3
	C190.3,106.5,179.6,95.6,166.5,95.6z M256,151.5c-17.2,0-31.2-14.2-31.2-31.6s14-31.6,31.2-31.6s31.2,14.2,31.2,31.6
	S273.2,151.5,256,151.5z M256,95.6c-13.2,0-23.9,10.9-23.9,24.3s10.7,24.3,23.9,24.3c13.2,0,23.9-10.9,23.9-24.3
	C279.9,106.5,269.2,95.6,256,95.6z M256,63.2c-17.2,0-31.2-14.2-31.2-31.6S238.8,0,256,0s31.2,14.2,31.2,31.6S273.2,63.2,256,63.2z
	 M256,7.3c-13.2,0-23.9,10.9-23.9,24.3s10.7,24.3,23.9,24.3c13.2,0,23.9-10.9,23.9-24.3S269.2,7.3,256,7.3z M256,243.3
	c-17.2,0-31.2-14.2-31.2-31.6s14-31.6,31.2-31.6s31.2,14.2,31.2,31.6S273.2,243.3,256,243.3z M256,187.4
	c-13.2,0-23.9,10.9-23.9,24.3S242.8,236,256,236c13.2,0,23.9-10.9,23.9-24.3S269.2,187.4,256,187.4z M345.5,151.5
	c-17.2,0-31.2-14.2-31.2-31.6s14-31.6,31.2-31.6s31.2,14.2,31.2,31.6S362.7,151.5,345.5,151.5z M345.5,95.6
	c-13.2,0-23.9,10.9-23.9,24.3s10.7,24.3,23.9,24.3c13.2,0,23.9-10.9,23.9-24.3C369.4,106.5,358.7,95.6,345.5,95.6z M345.5,334.3
	c-17.2,0-31.2-14.2-31.2-31.6s14-31.6,31.2-31.6s31.2,14.2,31.2,31.6C376.7,320.1,362.7,334.3,345.5,334.3z M345.5,278.4
	c-13.2,0-23.9,10.9-23.9,24.3s10.7,24.3,23.9,24.3c13.2,0,23.9-10.9,23.9-24.3S358.7,278.4,345.5,278.4z M166.5,425.3
	c-17.2,0-31.2-14.2-31.2-31.6s14-31.6,31.2-31.6s31.2,14.2,31.2,31.6S183.7,425.3,166.5,425.3z M166.5,369.4
	c-13.2,0-23.9,10.9-23.9,24.3s10.7,24.3,23.9,24.3s23.9-10.9,23.9-24.3C190.3,380.3,179.6,369.4,166.5,369.4z M256,425.3
	c-17.2,0-31.2-14.2-31.2-31.6s14-31.6,31.2-31.6s31.2,14.2,31.2,31.6S273.2,425.3,256,425.3z M256,369.4
	c-13.2,0-23.9,10.9-23.9,24.3S242.8,418,256,418c13.2,0,23.9-10.9,23.9-24.3S269.2,369.4,256,369.4z M256,512
	c-17.2,0-31.2-14.2-31.2-31.6s14-31.6,31.2-31.6s31.2,14.2,31.2,31.6S273.2,512,256,512z M256,456.1c-13.2,0-23.9,10.9-23.9,24.3
	s10.7,24.3,23.9,24.3c13.2,0,23.9-10.9,23.9-24.3S269.2,456.1,256,456.1z M345.5,425.3c-17.2,0-31.2-14.2-31.2-31.6
	s14-31.6,31.2-31.6s31.2,14.2,31.2,31.6S362.7,425.3,345.5,425.3z M345.5,369.4c-13.2,0-23.9,10.9-23.9,24.3s10.7,24.3,23.9,24.3
	c13.2,0,23.9-10.9,23.9-24.3S358.7,369.4,345.5,369.4z"/>
</svg>
